app/public/dtpr-icons/logistics.svg

<svg width="36" height="36" viewBox="0 0 36 36" fill="none" xmlns="http://www.w3.org/2000/svg">
<path d="M31.8564 8.8453L19 1.42265C18.3812 1.06538 17.6188 1.06538 17 1.42265L4.14359 8.8453C3.52479 9.20257 3.14359 9.86282 3.14359 10.5774V25.4226C3.14359 26.1372 3.52479 26.7974 4.14359 27.1547L17 34.5774C17.6188 34.9346 18.3812 34.9346 19 34.5774L31.8564 27.1547C32.4752 26.7974 32.8564 26.1372 32.8564 25.4226V10.5774C32.8564 9.86282 32.4752 9.20256 31.8564 8.8453Z" fill="black" stroke="black" stroke-width="2"/>
<path fill-rule="evenodd" clip-rule="evenodd" d="M25 14C25.6295 14 26.2223 14.2964 26.6 14.8L29 18V23H27C27 24.66 25.66 26 24 26C22.34 26 21 24.66 21 23H15C15 24.66 13.66 26 12 26C10.34 26 9 24.66 9 23H7V12C7 10.9 7.9 10 9 10H21C22.1046 10 23 10.8954 23 12V14H25ZM10.5 23C10.5 23.83 11.17 24.5 12 24.5C12.83 24.5 13.5 23.83 13.5 23C13.5 22.17 12.83 21.5 12 21.5C11.17 21.5 10.5 22.17 10.5 23ZM25.0133 15.5C25.3205 15.5 25.6107 15.6412 25.8003 15.883L27.46 18H23V15.5H25.0133ZM22.5 23C22.5 23.83 23.17 24.5 24 24.5C24.83 24.5 25.5 23.83 25.5 23C25.5 22.17 24.83 21.5 24 21.5C23.17 21.5 22.5 22.17 22.5 23Z" fill="white"/>
</svg>

<svg xmlns="http://www.w3.org/2000/svg" width="36" height="36" fill="none"><path fill="#000" stroke="#000" stroke-width="2" d="M31.856 8.845 19 1.423a2 2 0 0 0-2 0L4.144 8.845a2 2 0 0 0-1 1.732v14.846a2 2 0 0 0 1 1.732L17 34.577a2 2 0 0 0 2 0l12.856-7.422a2 2 0 0 0 1-1.732V10.577a2 2 0 0 0-1-1.732Z"/><path fill="#fff" fill-rule="evenodd" d="M25 14a2 2 0 0 1 1.6.8L29 18v5h-2c0 1.66-1.34 3-3 3s-3-1.34-3-3h-6c0 1.66-1.34 3-3 3s-3-1.34-3-3H7V12c0-1.1.9-2 2-2h12a2 2 0 0 1 2 2v2zm-14.5 9c0 .83.67 1.5 1.5 1.5s1.5-.67 1.5-1.5-.67-1.5-1.5-1.5-1.5.67-1.5 1.5m14.513-7.5a1 1 0 0 1 .787.383L27.46 18H23v-2.5zM22.5 23c0 .83.67 1.5 1.5 1.5s1.5-.67 1.5-1.5-.67-1.5-1.5-1.5-1.5.67-1.5 1.5" clip-rule="evenodd"/></svg>
